X:28
T:Step and Fetch Her
M:4/4
S:Bacon (RD, from Arnold Woodley)
A:Bampton
O:English
R:Reel
P:A(ABC)3
K:G
P:A
d2 B2 dcBA | G2 g2 e2 g2 | d2 B2 dcBA | G2 B2 G4 :|
P:B
A3 c B2 d2 | A3 c  B2 d2 | A3 B c2 e2 | [1 dcBA B2 G2 :| [2 dcBA G3 A |]
P:C
B2 Bc d2 cB | A2 AB c2 A2 | B2 Bc d2 g2 | dcBA G3A |
B2 Bc d2 cB | A2 AB c2 A2 | B2 Bc d2 g2 | fdef g4 |]
